svgs/sharp-light/spray-can.svg

<svg xmlns="http://www.w3.org/2000/svg" viewBox="0 0 512 512"><!--! Font Awesome Pro 6.6.0 by @fontawesome - https://fontawesome.com License - https://fontawesome.com/license (Commercial License) Copyright 2024 Fonticons, Inc. --><path d="M192 32l0 64 32 0 0-64 0-32L192 0 128 0 96 0l0 32 0 64 32 0 0-64 64 0zm32 128c35.3 0 64 28.7 64 64l0 256L32 480l0-256c0-35.3 28.7-64 64-64l32 0 64 0 32 0zm64-72a24 24 0 1 0 0-48 24 24 0 1 0 0 48zM96 128c-53 0-96 43-96 96L0 480l0 32 32 0 256 0 32 0 0-32 0-256c0-53-43-96-96-96l-32 0-64 0-32 0zm64 144a48 48 0 1 1 0 96 48 48 0 1 1 0-96zm0 128a80 80 0 1 0 0-160 80 80 0 1 0 0 160zM408 64a24 24 0 1 0 -48 0 24 24 0 1 0 48 0zm72 24a24 24 0 1 0 0-48 24 24 0 1 0 0 48zm24 72a24 24 0 1 0 -48 0 24 24 0 1 0 48 0zM480 280a24 24 0 1 0 0-48 24 24 0 1 0 0 48zM408 160a24 24 0 1 0 -48 0 24 24 0 1 0 48 0z"/></svg>

<svg xmlns="http://www.w3.org/2000/svg" viewBox="0 0 512 512"><!--! Font Awesome Pro 6.5.2 by @fontawesome - https://fontawesome.com License - https://fontawesome.com/license (Commercial License) Copyright 2024 Fonticons, Inc. --><path d="M192 32V96h32V32 0H192 128 96V32 96h32V32h64zm32 128c35.3 0 64 28.7 64 64V480H32V224c0-35.3 28.7-64 64-64h32 64 32zm64-72a24 24 0 1 0 0-48 24 24 0 1 0 0 48zM96 128c-53 0-96 43-96 96V480v32H32 288h32V480 224c0-53-43-96-96-96H192 128 96zm64 144a48 48 0 1 1 0 96 48 48 0 1 1 0-96zm0 128a80 80 0 1 0 0-160 80 80 0 1 0 0 160zM408 64a24 24 0 1 0 -48 0 24 24 0 1 0 48 0zm72 24a24 24 0 1 0 0-48 24 24 0 1 0 0 48zm24 72a24 24 0 1 0 -48 0 24 24 0 1 0 48 0zM480 280a24 24 0 1 0 0-48 24 24 0 1 0 0 48zM408 160a24 24 0 1 0 -48 0 24 24 0 1 0 48 0z"/></svg>
